X:200
T: Die Mordeltern
N: Q0085p
O: Osteuropa, Tschechoslowakei, Ober - Zips
N: Verzierungen (Glissandi) in den letzten beiden Zeilen.
R: Ballade, Habgier, Mord, Reue, Selbstmord
M: none
L: 1/4
K: G
D | GFG2d | d_BA3
A | _BAB2d | d_BA3
_e | d2^cd2_B | AG2z2
_e | d2^cd2_B | AG2z2

@@@ Tune index: 1255
